icons/microscope.svg

<svg width="48" height="48" viewBox="0 0 48 48" fill="none" xmlns="http://www.w3.org/2000/svg">
<path fill-rule="evenodd" clip-rule="evenodd" d="M19.7725 8.30157L21.2628 7.4536L22.2435 9.15216C23.5684 8.71843 25.0646 9.25298 25.7921 10.504L30.3148 18.2808C31.1477 19.7131 30.6576 21.5421 29.2202 22.366L28.3717 22.8524L29.0488 24.161L26.3749 25.5233L25.7658 24.346L25.0986 24.7284C23.6611 25.5523 21.8206 25.0592 20.9877 23.6269L18.0659 18.6028C15.503 20.0769 13.7356 21.7229 12.7876 23.6052C11.9897 25.1894 11.7274 27.0311 12.1688 29.2423C13.6009 28.4506 15.2478 28 17 28C20.2697 28 23.1729 29.5692 24.9975 31.9957L37.0836 25.1846L38.0764 26.9208L26.0342 33.707C26.6534 35.0078 27 36.4634 27 38C27 38.6849 26.9311 39.3538 26.8 40H40C40.5523 40 41 40.4477 41 41C41 41.5523 40.5523 42 40 42H7.83209C7.2969 40.7751 7 39.4222 7 38C7 35.0046 8.31701 32.3168 10.4036 30.484C9.64219 27.5566 9.85852 24.9748 11.0013 22.7056C12.1866 20.3521 14.3072 18.4589 17.0605 16.8739L16.465 15.85C15.825 14.7496 15.9661 13.4149 16.7178 12.4819L15.6565 10.6436L17.1648 9.78542L15.9236 7.55799L18.5536 6.11401L19.7725 8.30157ZM28.5796 19.2754L24.0569 11.4985C23.7793 11.0211 23.1658 10.8567 22.6866 11.1314L18.5651 13.4938C18.0859 13.7684 17.9226 14.3781 18.2002 14.8555L22.7229 22.6323C23.0005 23.1098 23.614 23.2742 24.0932 22.9995L28.2147 20.6371C28.6939 20.3625 28.8572 19.7528 28.5796 19.2754ZM24.7485 40C24.9125 39.362 25 38.6922 25 38C25 36.8203 24.7447 35.7003 24.2862 34.6921L19.4822 37.3994L18.4895 35.6632L23.236 32.9883C21.7697 31.1661 19.521 30 17 30C12.5817 30 9 33.5817 9 38C9 38.6922 9.08747 39.362 9.25153 40H24.7485Z" fill="black"/>
</svg>

<svg
  xmlns="http://www.w3.org/2000/svg"
  width="24"
  height="24"
  viewBox="0 0 24 24"
  fill="none"
  stroke="currentColor"
  stroke-width="2"
  stroke-linecap="round"
  stroke-linejoin="round"
>
  <path
    fill-rule="evenodd"
    d="m19.773 8.302 1.49-.848.98 1.698a3.025 3.025 0 0 1 3.55 1.352l4.522 7.777a2.977 2.977 0 0 1-1.095 4.085l-.848.486.677 1.309-2.674 1.362-.61-1.177-.666.382a3.023 3.023 0 0 1-4.111-1.101l-2.922-5.024c-2.563 1.474-4.33 3.12-5.278 5.002-.798 1.584-1.06 3.426-.62 5.637A9.96 9.96 0 0 1 17 28c3.27 0 6.173 1.57 7.997 3.996l12.087-6.811.992 1.736-12.042 6.786A10.052 10.052 0 0 1 26.8 40H40a1 1 0 1 1 0 2H7.832A10 10 0 0 1 7 38a9.98 9.98 0 0 1 3.404-7.516c-.762-2.927-.545-5.51.597-7.778 1.186-2.354 3.306-4.247 6.06-5.832l-.596-1.024a2.98 2.98 0 0 1 .253-3.368l-1.062-1.838 1.509-.859-1.241-2.227 2.63-1.444zm8.807 10.973L24.057 11.5a1.01 1.01 0 0 0-1.37-.368l-4.122 2.363a.99.99 0 0 0-.365 1.361l4.523 7.777c.277.478.891.642 1.37.367l4.122-2.362a.99.99 0 0 0 .365-1.362M24.749 40A8 8 0 0 0 25 38c0-1.18-.255-2.3-.714-3.308L19.482 37.4l-.992-1.736 4.746-2.675A8 8 0 0 0 9.252 40z"
    clip-rule="evenodd"
  />
</svg>
